assets/Man standing/Light/Flat/man_standing_flat_light.svg

<svg width="32" height="32" viewBox="0 0 32 32" fill="none" xmlns="http://www.w3.org/2000/svg">
<path d="M11.9301 19.74C12.0401 19.88 12.2501 19.9 12.3901 19.79C12.5301 19.68 12.5501 19.47 12.4401 19.33L12.0901 18.89C11.9801 18.75 11.7701 18.73 11.6301 18.84C11.4901 18.95 11.4701 19.16 11.5801 19.3L11.9301 19.74Z" fill="#F1B99B"/>
<path d="M19.21 19.74C19.1 19.88 18.89 19.9 18.75 19.79C18.61 19.68 18.58 19.47 18.7 19.33L19.05 18.89C19.16 18.75 19.37 18.73 19.51 18.84C19.65 18.95 19.67 19.16 19.56 19.3L19.21 19.74Z" fill="#F1B99B"/>
<path d="M13.96 8.98999L14.06 10.32L14.15 11.36C14.12 11.37 12.45 12.75 12.98 18.25C13 18.49 13.05 18.98 13.08 19.2C13.09 19.37 12.7 19.44 12.57 19.27C12.5351 19.2177 12.5064 19.1254 12.476 19.0281C12.4193 18.8462 12.3573 18.647 12.24 18.66C11.94 18.69 12.07 19.18 12.07 19.18C12.07 19.18 12.21 19.89 12.23 20.05C12.26 20.37 11.8 20.46 11.67 20.23C11.51 19.94 11.36 19.64 11.27 19.21C11.22 18.99 11.13 18.3 11.13 18.3C10.4989 10.6274 12.347 9.75859 13.5817 9.17819C13.7164 9.11485 13.8439 9.05494 13.96 8.98999Z" fill="#FFD7C2"/>
<path d="M17.18 8.98999L17.08 10.32L17 11.36C17.02 11.37 18.69 12.75 18.15 18.25C18.1354 18.4249 18.1049 18.738 18.0817 18.9762C18.0731 19.0648 18.0654 19.143 18.06 19.2C18.05 19.37 18.44 19.44 18.57 19.27C18.6048 19.2177 18.6336 19.1254 18.6639 19.0281C18.7206 18.8462 18.7827 18.647 18.9 18.66C19.2 18.69 19.07 19.18 19.07 19.18C19.07 19.18 18.93 19.89 18.91 20.05C18.88 20.37 19.34 20.46 19.47 20.23C19.63 19.94 19.78 19.64 19.87 19.21C19.92 18.99 20.01 18.3 20.01 18.3C20.6411 10.6274 18.793 9.75859 17.5583 9.17819C17.4236 9.11485 17.2961 9.05494 17.18 8.98999Z" fill="#FFD7C2"/>
<path d="M16.1001 30.03V28.46L17.0277 28.088L18.0501 28.46C18.0501 28.46 17.8001 28.64 18.9601 29.46C19.1801 29.61 19.0701 30.03 19.0701 30.03H16.1001Z" fill="#533566"/>
<path d="M15.0699 30.03V28.46L14.0753 28.1242L13.0599 28.46C13.0599 28.46 13.1299 28.78 12.1399 29.46C11.9199 29.61 12.0299 30.03 12.0299 30.03H15.0699Z" fill="#533566"/>
<path d="M12.5901 16L13.0702 28.46H15.0802L15.3502 18.09C15.3502 17.71 15.8102 17.73 15.8102 18.09L16.1002 28.46H18.0402L18.5701 15.9922L15.6586 15.1548L12.5901 16Z" fill="#9B9B9B"/>
<path d="M18.5701 16H12.5901V12.65H11.2C11.2 11.5 11.83 10.45 12.59 9.68002C13.36 8.90002 14.4201 8.42004 15.5901 8.42004C16.7601 8.42004 17.8201 8.91004 18.5901 9.68004C19.3501 10.45 19.93 11.5 19.93 12.65H18.5807L18.5701 16Z" fill="#00A6ED"/>
<path d="M15.5699 9.41002C15.0699 9.41002 14.6599 9.00002 14.6599 8.50002V7.90002H16.4799V8.50002C16.4799 9.00002 16.0699 9.41002 15.5699 9.41002Z" fill="#F4C6AD"/>
<path d="M14.2401 5.78996C14.2401 6.18208 13.9222 6.49996 13.5301 6.49996C13.1379 6.49996 12.8201 6.18208 12.8201 5.78996C12.8201 5.39783 13.1379 5.07996 13.5301 5.07996C13.9222 5.07996 14.2401 5.39783 14.2401 5.78996Z" fill="#F4C6AD"/>
<path d="M18.43 5.78996C18.43 6.18208 18.1121 6.49996 17.72 6.49996C17.3279 6.49996 17.01 6.18208 17.01 5.78996C17.01 5.39783 17.3279 5.07996 17.72 5.07996C18.1121 5.07996 18.43 5.39783 18.43 5.78996Z" fill="#F4C6AD"/>
<path d="M15.4301 2.59998C14.2101 2.59998 13.2501 3.62998 13.3401 4.83998L13.5101 7.27998C13.5801 8.03998 14.1901 8.58998 14.9201 8.58998H16.3301C17.0601 8.58998 17.6701 8.03998 17.7401 7.27998L17.9101 4.83998C17.9901 3.62998 17.0301 2.59998 15.8201 2.59998H15.4301Z" fill="#FFD7C2"/>
<path d="M13.9971 4.98352C14.0374 5.01207 14.0856 5.02742 14.135 5.02744C14.1876 5.02765 14.2389 5.01081 14.281 4.97943C14.4424 4.86984 14.6395 4.82619 14.832 4.85744C14.8948 4.86492 14.9581 4.84772 15.0085 4.80948C15.0588 4.77124 15.0924 4.71493 15.102 4.65244C15.1106 4.58946 15.0938 4.52567 15.0554 4.47505C15.0169 4.42443 14.96 4.39113 14.897 4.38243C14.5762 4.33841 14.2505 4.41697 13.985 4.60244C13.9466 4.63348 13.9187 4.67568 13.9052 4.72324C13.8917 4.7708 13.8933 4.82137 13.9098 4.86798C13.9262 4.91459 13.9567 4.95496 13.9971 4.98352Z" fill="#212121"/>
<path d="M16.9732 4.97844C17.0151 5.01136 17.0669 5.02931 17.1202 5.02943C17.1698 5.02934 17.2182 5.01386 17.2587 4.98513C17.2992 4.95639 17.3297 4.91581 17.3462 4.86898C17.3626 4.82214 17.3642 4.77136 17.3506 4.72363C17.3369 4.67589 17.3089 4.63355 17.2702 4.60244C17.0047 4.41697 16.679 4.33841 16.3582 4.38243C16.2952 4.39113 16.2383 4.42443 16.1999 4.47505C16.1614 4.52567 16.1446 4.58946 16.1532 4.65244C16.1631 4.71482 16.1967 4.77098 16.247 4.80917C16.2973 4.84737 16.3604 4.86466 16.4232 4.85744C16.6152 4.82864 16.811 4.87173 16.9732 4.97844Z" fill="#212121"/>
<path d="M13.99 5.65995C14.05 5.39995 14.29 5.19995 14.58 5.19995C14.88 5.19995 15.12 5.40995 15.17 5.68995C15.18 5.74995 15.13 5.80995 15.07 5.80995H14.1C14.03 5.80995 13.97 5.73995 13.99 5.65995Z" fill="white"/>
<path d="M17.2601 5.65995C17.2001 5.39995 16.9601 5.19995 16.6701 5.19995C16.3701 5.19995 16.1301 5.40995 16.0701 5.68995C16.0601 5.74995 16.1101 5.80995 16.1701 5.80995H17.1401C17.2201 5.80995 17.2801 5.73995 17.2601 5.65995Z" fill="white"/>
<path d="M14.28 5.70995C14.28 5.48995 14.45 5.31995 14.67 5.31995C14.89 5.31995 15.06 5.48995 15.05 5.70995C15.05 5.73995 15.05 5.77995 15.04 5.80995H14.29C14.29 5.79602 14.2879 5.7821 14.2856 5.76718C14.2829 5.74995 14.28 5.73138 14.28 5.70995Z" fill="#7D4533"/>
<path d="M16.9702 5.70995C16.9702 5.48995 16.8002 5.31995 16.5802 5.31995C16.3602 5.31995 16.1902 5.48995 16.1902 5.70995C16.1902 5.73995 16.1902 5.77995 16.2002 5.80995H16.9602C16.9602 5.79602 16.9623 5.7821 16.9646 5.76718C16.9673 5.74995 16.9702 5.73138 16.9702 5.70995Z" fill="#7D4533"/>
<path d="M14.67 5.48999C14.79 5.48999 14.89 5.58999 14.89 5.70999C14.89 5.73999 14.88 5.77999 14.87 5.80999H14.48C14.46 5.77999 14.45 5.74999 14.45 5.70999C14.45 5.58999 14.55 5.48999 14.67 5.48999Z" fill="black"/>
<path d="M16.5801 5.48999C16.4601 5.48999 16.3601 5.58999 16.3601 5.70999C16.3601 5.73999 16.3701 5.77999 16.3801 5.80999H16.7701C16.7901 5.77999 16.8001 5.74999 16.8001 5.70999C16.8001 5.58999 16.7001 5.48999 16.5801 5.48999Z" fill="black"/>
<path d="M14.61 5.54998C14.61 5.58864 14.5786 5.61998 14.54 5.61998C14.5013 5.61998 14.47 5.58864 14.47 5.54998C14.47 5.51132 14.5013 5.47998 14.54 5.47998C14.5786 5.47998 14.61 5.51132 14.61 5.54998Z" fill="white"/>
<path d="M16.5301 5.54998C16.5301 5.58864 16.4988 5.61998 16.4601 5.61998C16.4215 5.61998 16.3901 5.58864 16.3901 5.54998C16.3901 5.51132 16.4215 5.47998 16.4601 5.47998C16.4988 5.47998 16.5301 5.51132 16.5301 5.54998Z" fill="white"/>
<path d="M15.46 5.67005L15.23 6.41005C15.18 6.56005 15.3 6.71005 15.45 6.71005H15.79C15.95 6.71005 16.06 6.56005 16.01 6.41005L15.79 5.67005C15.74 5.51005 15.51 5.51005 15.46 5.67005Z" fill="#E5AF93"/>
<path d="M17.9202 3.02999L17.7302 2.93999C17.6002 2.86999 17.4802 2.78999 17.3802 2.67999L17.0202 2.31999C16.7502 2.04999 16.3402 1.95999 15.9802 2.08999C15.7502 2.16999 15.4902 2.16999 15.2602 2.08999C14.9402 1.92999 14.5602 1.98999 14.3102 2.23999L13.8702 2.67999C13.7702 2.77999 13.6502 2.86999 13.5102 2.93999L13.3302 3.02999C12.9802 3.19999 12.8002 3.57999 12.8702 3.94999L13.1102 5.29999C13.1302 5.42999 13.2502 5.52999 13.3902 5.53999C13.3902 5.53999 13.3602 5.15999 13.3502 4.90999C13.3402 4.77999 13.3902 4.65999 13.4802 4.56999L13.5602 4.49999C13.6702 4.39999 13.7302 4.25999 13.7302 4.10999V3.72999C13.7302 3.61999 13.8002 3.52999 13.9102 3.49999C14.1902 3.42999 14.7902 3.30999 15.6202 3.30999C16.4502 3.30999 17.0502 3.42999 17.3302 3.49999C17.4302 3.52999 17.5102 3.61999 17.5102 3.72999V4.10999C17.5102 4.25999 17.5702 4.39999 17.6802 4.49999L17.7702 4.57999C17.8602 4.65999 17.9102 4.77999 17.9002 4.90999C17.8902 5.15999 17.8602 5.53999 17.8602 5.53999C17.9902 5.52999 18.1102 5.43999 18.1302 5.29999L18.3802 3.94999C18.4502 3.57999 18.2602 3.19999 17.9202 3.02999Z" fill="#212121"/>
<path d="M15.6199 7.08003C15.3799 7.08003 15.1599 7.02003 14.9799 6.93003C14.9199 6.90003 14.8499 6.97003 14.8899 7.03003C15.0499 7.27003 15.3199 7.43003 15.6199 7.43003C15.9199 7.43003 16.1999 7.27003 16.3499 7.03003C16.3899 6.97003 16.3199 6.90003 16.2599 6.93003C16.0799 7.02003 15.8599 7.08003 15.6199 7.08003Z" fill="#990838"/>
</svg>

<svg xmlns="http://www.w3.org/2000/svg" width="32" height="32" fill="none"><path fill="#F1B99B" d="M11.93 19.74c.11.14.32.16.46.05a.33.33 0 0 0 .05-.46l-.35-.44a.33.33 0 0 0-.46-.05.33.33 0 0 0-.05.46l.35.44ZM19.21 19.74a.33.33 0 0 1-.46.05.322.322 0 0 1-.05-.46l.35-.44a.33.33 0 0 1 .46-.05c.14.11.16.32.05.46l-.35.44Z"/><path fill="#FFD7C2" d="m13.96 8.99.1 1.33.09 1.04c-.03.01-1.7 1.39-1.17 6.89.02.24.07.73.1.95.01.17-.38.24-.51.07-.035-.052-.064-.145-.094-.242-.057-.182-.119-.381-.236-.368-.3.03-.17.52-.17.52s.14.71.16.87c.03.32-.43.41-.56.18-.16-.29-.31-.59-.4-1.02-.05-.22-.14-.91-.14-.91-.631-7.673 1.217-8.541 2.452-9.122.134-.063.262-.123.378-.188ZM17.18 8.99l-.1 1.33-.08 1.04c.02.01 1.69 1.39 1.15 6.89-.015.175-.045.488-.068.726l-.022.224c-.01.17.38.24.51.07.035-.052.064-.145.094-.242.057-.182.119-.381.236-.368.3.03.17.52.17.52s-.14.71-.16.87c-.03.32.43.41.56.18.16-.29.31-.59.4-1.02.05-.22.14-.91.14-.91.631-7.673-1.217-8.541-2.452-9.122-.134-.063-.262-.123-.378-.188Z"/><path fill="#533566" d="M16.1 30.03v-1.57l.928-.372 1.022.372s-.25.18.91 1c.22.15.11.57.11.57H16.1ZM15.07 30.03v-1.57l-.995-.336-1.015.336s.07.32-.92 1c-.22.15-.11.57-.11.57h3.04Z"/><path fill="#9B9B9B" d="m12.59 16 .48 12.46h2.01l.27-10.37c0-.38.46-.36.46 0l.29 10.37h1.94l.53-12.468-2.911-.837L12.59 16Z"/><path fill="#00A6ED" d="M18.57 16h-5.98v-3.35H11.2c0-1.15.63-2.2 1.39-2.97.77-.78 1.83-1.26 3-1.26s2.23.49 3 1.26c.76.77 1.34 1.82 1.34 2.97h-1.35L18.57 16Z"/><path fill="#F4C6AD" d="M15.57 9.41c-.5 0-.91-.41-.91-.91v-.6h1.82v.6c0 .5-.41.91-.91.91ZM14.24 5.79a.71.71 0 1 1-1.42 0 .71.71 0 0 1 1.42 0ZM18.43 5.79a.71.71 0 1 1-1.42 0 .71.71 0 0 1 1.42 0Z"/><path fill="#FFD7C2" d="M15.43 2.6c-1.22 0-2.18 1.03-2.09 2.24l.17 2.44c.07.76.68 1.31 1.41 1.31h1.41c.73 0 1.34-.55 1.41-1.31l.17-2.44a2.1 2.1 0 0 0-2.09-2.24h-.39Z"/><path fill="#212121" d="M13.997 4.984a.243.243 0 0 0 .284-.004.763.763 0 0 1 .551-.123.244.244 0 0 0 .27-.205.24.24 0 0 0-.205-.27 1.287 1.287 0 0 0-.912.22.24.24 0 0 0 .012.382ZM16.973 4.978a.239.239 0 0 0 .378-.254.24.24 0 0 0-.08-.122 1.287 1.287 0 0 0-.913-.22.24.24 0 0 0-.205.27.245.245 0 0 0 .27.205.788.788 0 0 1 .55.121Z"/><path fill="#fff" d="M13.99 5.66c.06-.26.3-.46.59-.46.3 0 .54.21.59.49.01.06-.04.12-.1.12h-.97c-.07 0-.13-.07-.11-.15ZM17.26 5.66a.612.612 0 0 0-1.19.03c-.01.06.04.12.1.12h.97c.08 0 .14-.07.12-.15Z"/><path fill="#7D4533" d="M14.28 5.71c0-.22.17-.39.39-.39s.39.17.38.39c0 .03 0 .07-.01.1h-.75a.282.282 0 0 0-.004-.043.356.356 0 0 1-.006-.057ZM16.97 5.71c0-.22-.17-.39-.39-.39s-.39.17-.39.39c0 .03 0 .07.01.1h.76c0-.014.002-.028.005-.043a.356.356 0 0 0 .005-.057Z"/><path fill="#000" d="M14.67 5.49c.12 0 .22.1.22.22 0 .03-.01.07-.02.1h-.39a.169.169 0 0 1-.03-.1c0-.12.1-.22.22-.22ZM16.58 5.49c-.12 0-.22.1-.22.22 0 .03.01.07.02.1h.39c.02-.03.03-.06.03-.1 0-.12-.1-.22-.22-.22Z"/><path fill="#fff" d="M14.61 5.55a.07.07 0 1 1-.14 0 .07.07 0 0 1 .14 0ZM16.53 5.55a.07.07 0 1 1-.14 0 .07.07 0 0 1 .14 0Z"/><path fill="#E5AF93" d="m15.46 5.67-.23.74c-.05.15.07.3.22.3h.34c.16 0 .27-.15.22-.3l-.22-.74c-.05-.16-.28-.16-.33 0Z"/><path fill="#212121" d="m17.92 3.03-.19-.09c-.13-.07-.25-.15-.35-.26l-.36-.36a1 1 0 0 0-1.04-.23c-.23.08-.49.08-.72 0a.82.82 0 0 0-.95.15l-.44.44c-.1.1-.22.19-.36.26l-.18.09c-.35.17-.53.55-.46.92l.24 1.35c.02.13.14.23.28.24 0 0-.03-.38-.04-.63a.43.43 0 0 1 .13-.34l.08-.07c.11-.1.17-.24.17-.39v-.38c0-.11.07-.2.18-.23.28-.07.88-.19 1.71-.19s1.43.12 1.71.19c.1.03.18.12.18.23v.38c0 .15.06.29.17.39l.09.08c.09.08.14.2.13.33-.01.25-.04.63-.04.63.13-.01.25-.1.27-.24l.25-1.35a.859.859 0 0 0-.46-.92Z"/><path fill="#990838" d="M15.62 7.08c-.24 0-.46-.06-.64-.15-.06-.03-.13.04-.09.1.16.24.43.4.73.4s.58-.16.73-.4c.04-.06-.03-.13-.09-.1-.18.09-.4.15-.64.15Z"/></svg>
